img/instagram-footer.svg

<svg fill="none" height="45" viewBox="0 0 45 45" width="45" xmlns="http://www.w3.org/2000/svg"><g fill="#cacaca"><path d="m18.1172 22.5c0 2.3785 1.9281 4.3066 4.3066 4.3066 2.3786 0 4.3067-1.9281 4.3067-4.3066s-1.9281-4.3066-4.3067-4.3066c-2.3785 0-4.3066 1.9281-4.3066 4.3066z"/><path d="m12.3521 14.8803c.207-.5609.5373-1.0687.9664-1.4855.4168-.4292.9243-.7594 1.4856-.9665.4552-.1768 1.1391-.3872 2.3988-.4446 1.3626-.0621 1.7712-.0755 5.2209-.0755 3.45 0 3.8586.013 5.2209.0752 1.2597.0577 1.9439.2681 2.3988.4449.5613.2071 1.0691.5373 1.4856.9665.4291.4168.7594.9242.9668 1.4855.1768.4553.3872 1.1395.4446 2.3992.0621 1.3623.0755 1.7708.0755 5.2209 0 3.4497-.0134 3.8583-.0755 5.2209-.0574 1.2597-.2678 1.9436-.4446 2.3988-.2074.5613-.5373 1.0688-.9665 1.4856-.4168.4291-.9242.7594-1.4856.9664-.4552.1772-1.1394.3876-2.3991.445-1.3623.0621-1.7705.0751-5.2206.0751-3.4504 0-3.8589-.013-5.2209-.0751-1.2596-.0574-1.9439-.2678-2.3991-.445-1.1268-.4346-2.0174-1.3252-2.452-2.452-.1768-.4552-.3873-1.1391-.445-2.3988-.0621-1.3626-.0752-1.7712-.0752-5.2209 0-3.4501.0131-3.8586.0752-5.2209.0574-1.2597.2678-1.9439.445-2.3992zm10.0717 14.2541c3.6643 0 6.6347-2.9701 6.6347-6.6343 0-3.6643-2.9704-6.6344-6.6347-6.6344-3.6639 0-6.6344 2.9701-6.6344 6.6344 0 3.6642 2.9705 6.6343 6.6344 6.6343zm-6.8967-11.9806c.8563 0 1.5505-.6942 1.5505-1.5504 0-.8563-.6942-1.5505-1.5505-1.5505-.8562 0-1.5504.6942-1.5504 1.5505.0003.8562.6942 1.5504 1.5504 1.5504z"/><path d="m22.6204 0c12.316 0 22.3034 9.98747 22.3034 22.3034 0 12.316-9.9874 22.3035-22.3034 22.3035s-22.303441-9.9875-22.303441-22.3035c0-12.31593 9.987441-22.3034 22.303441-22.3034zm-12.72981 27.5836c.06194 1.3633.27871 2.2941.59521 3.1088.6654 1.7203 2.0253 3.0803 3.7456 3.7456.8144.3165 1.7455.533 3.1085.5952 1.3658.0623 1.802.0773 5.2802.0773 3.4784 0 3.9144-.015 5.2804-.0773 1.363-.0622 2.2941-.2787 3.1085-.5952.8549-.3216 1.6288-.8256 2.2686-1.4773.6514-.6395 1.1554-1.4137 1.477-2.2683.3165-.8144.5333-1.7455.5952-3.1085.063-1.3661.0776-1.8024.0776-5.2805s-.0146-3.9144-.0772-5.2801c-.0619-1.3633-.2784-2.2941-.5949-3.1088-.3216-.8546-.826-1.6288-1.4777-2.2683-.6394-.6517-1.4137-1.1557-2.2682-1.4773-.8148-.31654-1.7456-.53298-3.1089-.59526-1.3657-.06228-1.802-.07726-5.2801-.07726s-3.9144.01498-5.2801.0776c-1.3634.06194-2.2941.27838-3.1089.59452-.8545.3216-1.6288.826-2.2686 1.4777-.6514.6398-1.1557 1.4137-1.477 2.2683-.3168.8147-.53327 1.7455-.59555 3.1088-.06227 1.3657-.07691 1.802-.07691 5.2801s.01464 3.9144.07725 5.2802z"/></g></svg>

<svg width="45" height="45" viewBox="0 0 45 45" fill="none" xmlns="http://www.w3.org/2000/svg">
<path d="M18.1172 22.5C18.1172 24.8785 20.0453 26.8066 22.4238 26.8066C24.8024 26.8066 26.7305 24.8785 26.7305 22.5C26.7305 20.1215 24.8024 18.1934 22.4238 18.1934C20.0453 18.1934 18.1172 20.1215 18.1172 22.5Z" fill="#CACACA"/>
<path d="M12.3521 14.8803C12.5591 14.3194 12.8894 13.8116 13.3185 13.3948C13.7353 12.9656 14.2428 12.6354 14.8041 12.4283C15.2593 12.2515 15.9432 12.0411 17.2029 11.9837C18.5655 11.9216 18.9741 11.9082 22.4238 11.9082C25.8738 11.9082 26.2824 11.9212 27.6447 11.9834C28.9044 12.0411 29.5886 12.2515 30.0435 12.4283C30.6048 12.6354 31.1126 12.9656 31.5291 13.3948C31.9582 13.8116 32.2885 14.319 32.4959 14.8803C32.6727 15.3356 32.8831 16.0198 32.9405 17.2795C33.0026 18.6418 33.016 19.0503 33.016 22.5004C33.016 25.9501 33.0026 26.3587 32.9405 27.7213C32.8831 28.981 32.6727 29.6649 32.4959 30.1201C32.2885 30.6814 31.9586 31.1889 31.5294 31.6057C31.1126 32.0348 30.6052 32.3651 30.0438 32.5721C29.5886 32.7493 28.9044 32.9597 27.6447 33.0171C26.2824 33.0792 25.8742 33.0922 22.4241 33.0922C18.9737 33.0922 18.5652 33.0792 17.2032 33.0171C15.9436 32.9597 15.2593 32.7493 14.8041 32.5721C13.6773 32.1375 12.7867 31.2469 12.3521 30.1201C12.1753 29.6649 11.9648 28.981 11.9071 27.7213C11.845 26.3587 11.8319 25.9501 11.8319 22.5004C11.8319 19.0503 11.845 18.6418 11.9071 17.2795C11.9645 16.0198 12.1749 15.3356 12.3521 14.8803ZM22.4238 29.1344C26.0881 29.1344 29.0585 26.1643 29.0585 22.5001C29.0585 18.8358 26.0881 15.8657 22.4238 15.8657C18.7599 15.8657 15.7894 18.8358 15.7894 22.5001C15.7894 26.1643 18.7599 29.1344 22.4238 29.1344ZM15.5271 17.1538C16.3834 17.1538 17.0776 16.4596 17.0776 15.6034C17.0776 14.7471 16.3834 14.0529 15.5271 14.0529C14.6709 14.0529 13.9767 14.7471 13.9767 15.6034C13.977 16.4596 14.6709 17.1538 15.5271 17.1538Z" fill="#CACACA"/>
<path d="M22.6204 0C34.9364 0 44.9238 9.98747 44.9238 22.3034C44.9238 34.6194 34.9364 44.6069 22.6204 44.6069C10.3044 44.6069 0.316959 34.6194 0.316959 22.3034C0.316959 9.98747 10.3044 0 22.6204 0ZM9.89059 27.5836C9.95253 28.9469 10.1693 29.8777 10.4858 30.6924C11.1512 32.4127 12.5111 33.7727 14.2314 34.438C15.0458 34.7545 15.9769 34.971 17.3399 35.0332C18.7057 35.0955 19.1419 35.1105 22.6201 35.1105C26.0985 35.1105 26.5345 35.0955 27.9005 35.0332C29.2635 34.971 30.1946 34.7545 31.009 34.438C31.8639 34.1164 32.6378 33.6124 33.2776 32.9607C33.929 32.3212 34.433 31.547 34.7546 30.6924C35.0711 29.878 35.2879 28.9469 35.3498 27.5839C35.4128 26.2178 35.4274 25.7815 35.4274 22.3034C35.4274 18.8253 35.4128 18.389 35.3502 17.0233C35.2883 15.66 35.0718 14.7292 34.7553 13.9145C34.4337 13.0599 33.9293 12.2857 33.2776 11.6462C32.6382 10.9945 31.8639 10.4905 31.0094 10.1689C30.1946 9.85236 29.2638 9.63592 27.9005 9.57364C26.5348 9.51136 26.0985 9.49638 22.6204 9.49638C19.1423 9.49638 18.706 9.51136 17.3403 9.57398C15.9769 9.63592 15.0462 9.85236 14.2314 10.1685C13.3769 10.4901 12.6026 10.9945 11.9628 11.6462C11.3114 12.286 10.8071 13.0599 10.4858 13.9145C10.169 14.7292 9.95253 15.66 9.89025 17.0233C9.82798 18.389 9.81334 18.8253 9.81334 22.3034C9.81334 25.7815 9.82798 26.2178 9.89059 27.5836Z" fill="#CACACA"/>
</svg>
